X:1
T:Title
%%score { ( 1 3 ) | ( 2 4 ) }
L:1/8
M:4/4
K:F
V:1 treble nm="Grand Piano"
V:3 treble 
V:2 bass 
V:4 bass 
V:1
 z4 z2[Q:1/4=100] F>G | A2 A2 [EG]2 [FA]>G | F6 z2 | E[EG][EG][EG] [EG]2 [EG]>[EG] | FAAA A2 c>c | %5
 d6 z2 | c6 z2 | [CA]2 [FA][FA] [EG]2 [EA]>G |[M:3/4] F6 |] %9
V:2
 z4 z2 [F,A,C]>[F,B,C] | [F,CF]2 [F,CF]2 [C,B,]2 [C,C]>[C,B,C] | [A,C]2 B,B, A,2 [F,A,C]>[F,A,C] | %3
 [C,G,C][C,B,][C,B,][C,B,] [C,B,]2 [C,B,]>[C,B,] | [F,A,][F,CF][F,CF][F,CF] [F,CF]2 z2 | %5
 z2 [B,,B,]>[B,,B,] [B,,B,]2 z2 | z2 [F,A,]>[F,A,] [F,A,]2 [A,,F,]>[B,,F,] | %7
 [C,F,]2 [C,C][C,C] [C,B,]2 [C,C]>[C,B,C] |[M:3/4] [F,A,C]6 |] %9
V:3
 x8 | x8 | z2 DD C2 F>F | x8 | x8 | z2 F>F F2 d>d | z2 F>F F2 [CF]>[DG] | x8 |[M:3/4] x6 |] %9
V:4
 x8 | x8 | F,6 z2 | x8 | x8 | x8 | x8 | x8 |[M:3/4] x6 |] %9

